assets/img/icons/intro/systems.svg

<svg width="81" height="80" viewBox="0 0 81 80" fill="none" xmlns="http://www.w3.org/2000/svg">
<path d="M16.9331 37.3403V65.207H64.1331V37.3403" stroke="#A89365" stroke-width="2" stroke-linecap="round" stroke-linejoin="round"/>
<path d="M40.5332 15.3735L20.1998 30.0735M40.5332 15.3735L71.3332 37.6735V41.6069L40.5332 21.9402L9.73315 41.6069V37.6735L20.2332 30.0735L40.5332 15.3735ZM40.5332 15.3735L26.7665 25.3402V19.9735H20.2332V30.0735L40.5332 15.3735Z" stroke="#A89365" stroke-width="2" stroke-linecap="round" stroke-linejoin="round"/>
<path d="M19.5666 16.04H27.4332C27.7999 16.04 28.0999 16.34 28.0999 16.7067V19.34C28.0999 19.7067 27.7999 20.0067 27.4332 20.0067H19.5666C19.1999 20.0067 18.8999 19.7067 18.8999 19.34V16.7067C18.8999 16.34 19.1999 16.04 19.5666 16.04Z" stroke="#A89365" stroke-width="2" stroke-linecap="round" stroke-linejoin="round"/>
<path d="M16.9331 37.3403H64.1331" stroke="#A89365" stroke-width="2" stroke-linecap="round" stroke-linejoin="round"/>
<path d="M40.5332 33.107C41.9876 33.107 43.1666 31.928 43.1666 30.4737C43.1666 29.0193 41.9876 27.8403 40.5332 27.8403C39.0789 27.8403 37.8999 29.0193 37.8999 30.4737C37.8999 31.928 39.0789 33.107 40.5332 33.107Z" stroke="#A89365" stroke-width="2" stroke-linecap="round" stroke-linejoin="round"/>
<path d="M38.3986 53.1217C38.3279 54.2179 37.3734 55.0666 36.2775 54.9959C35.1815 54.9252 34.3331 53.9704 34.4038 52.8742C34.4745 51.8133 35.3583 51 36.4189 51C37.5502 51.0354 38.434 51.9901 38.3986 53.1217Z" stroke="#A89365" stroke-width="2" stroke-miterlimit="10"/>
<path d="M29.3997 40C28.8474 40 28.3997 40.4477 28.3997 41V45C28.3997 45.5523 28.8474 46 29.3997 46H32.4086C32.6409 46 32.8481 45.867 32.9734 45.6713C33.1418 45.4083 33.1363 45.0579 32.918 44.8345L32.0923 43.9896C31.8577 43.7494 31.4783 43.7193 31.1425 43.7193C30.5939 43.7544 30.0797 43.2982 30.0454 42.7018C30.0111 42.1053 30.4568 41.614 31.0397 41.5789C31.6225 41.5439 32.1368 42 32.1711 42.5965V42.6316C32.1711 43.0185 32.1672 43.4697 32.4376 43.7464L33.1224 44.4472C33.3716 44.7023 33.7787 44.7044 34.0777 44.5099C34.2692 44.3852 34.3997 44.1747 34.3997 43.9462V41C34.3997 40.4477 33.9519 40 33.3997 40H29.3997Z" fill="#A89365"/>
<path d="M29.3997 62C28.8474 62 28.3997 61.5523 28.3997 61V57C28.3997 56.4477 28.8474 56 29.3997 56H32.4383C32.6681 56 32.873 56.1307 32.9976 56.3237C33.1675 56.5864 33.162 56.938 32.9421 57.1605L32.1156 57.9967C31.8778 58.2372 31.4965 58.2674 31.1583 58.2674C30.5721 58.2326 30.0893 58.686 30.0548 59.2791C30.0203 59.8721 30.4686 60.3953 31.0548 60.4302C31.641 60.4651 32.1238 60.0116 32.1583 59.4186V59.3837C32.1583 58.9996 32.1543 58.5505 32.4243 58.2774L33.117 57.5766C33.3675 57.3232 33.773 57.3211 34.0724 57.5141C34.2667 57.6394 34.3997 57.8524 34.3997 58.0837V61C34.3997 61.5523 33.9519 62 33.3997 62H29.3997Z" fill="#A89365"/>
<path d="M51.3997 40C51.9519 40 52.3997 40.4477 52.3997 41V45C52.3997 45.5523 51.9519 46 51.3997 46H48.3565C48.1241 46 47.917 45.867 47.7917 45.6713C47.6232 45.4083 47.6288 45.0579 47.8471 44.8345L48.6727 43.9896C48.9074 43.7494 49.2867 43.7193 49.6225 43.7193C50.2054 43.7544 50.6854 43.2982 50.7197 42.7018C50.7539 42.1053 50.3082 41.614 49.7254 41.5789C49.1425 41.5439 48.6625 42 48.6282 42.5965V42.6316C48.6282 43.0185 48.6321 43.4697 48.3617 43.7464L47.6634 44.4611C47.4162 44.7141 47.027 44.7317 46.7369 44.5293C46.5406 44.3923 46.3997 44.1679 46.3997 43.9285V41C46.3997 40.4477 46.8474 40 47.3997 40H51.3997Z" fill="#A89365"/>
<path d="M51.3938 61.9942C51.9484 61.9974 52.3997 61.5487 52.3997 60.9942V57C52.3997 56.4477 51.9519 56 51.3997 56H48.3531C48.1227 56 47.9173 56.1315 47.7927 56.3252C47.624 56.5873 47.6295 56.9373 47.848 57.1596L48.6717 57.9977C48.9072 58.2374 49.2865 58.2674 49.6225 58.2674C50.2054 58.2326 50.6854 58.686 50.7197 59.2791C50.7539 59.8721 50.3082 60.3605 49.7254 60.3953C49.1425 60.4302 48.6625 59.9767 48.6282 59.3837V59.3488C48.6282 58.9645 48.6322 58.5156 48.3627 58.2415L47.6623 57.5289C47.4153 57.2775 47.0281 57.26 46.7386 57.4609C46.5414 57.5979 46.3997 57.8229 46.3997 58.063V60.9709C46.3997 61.5209 46.8438 61.9677 47.3938 61.9709L51.3938 61.9942Z" fill="#A89365"/>
<path d="M44.3959 53.1217C44.3253 54.2179 43.3715 55.0666 42.2763 54.9959C41.1812 54.9252 40.3334 53.9704 40.404 52.8742C40.4747 51.8133 41.3578 51 42.4176 51C43.5834 51.0354 44.4666 51.9901 44.3959 53.1217Z" stroke="#A89365" stroke-width="2" stroke-miterlimit="10"/>
<path d="M37.3999 51V45" stroke="#A89365" stroke-width="2" stroke-miterlimit="10" stroke-linecap="round" stroke-linejoin="round"/>
<path d="M37.3999 45H43.3999" stroke="#A89365" stroke-width="2" stroke-miterlimit="10" stroke-linecap="round" stroke-linejoin="round"/>
<path d="M43.3999 45V51" stroke="#A89365" stroke-width="2" stroke-miterlimit="10" stroke-linecap="round" stroke-linejoin="round"/>
<line x1="37.3999" y1="48.5" x2="43.3999" y2="48.5" stroke="#A89365"/>
</svg>

<svg width="81" height="80" fill="none" xmlns="http://www.w3.org/2000/svg"><path d="M16.933 37.34v27.867h47.2V37.34" stroke="#A89365" stroke-width="2" stroke-linecap="round" stroke-linejoin="round"/><path d="M40.533 15.373L20.2 30.073m20.333-14.7l30.8 22.3v3.934l-30.8-19.667-30.8 19.667v-3.934l10.5-7.6 20.3-14.7zm0 0L26.766 25.34v-5.366h-6.533v10.1l20.3-14.7z" stroke="#A89365" stroke-width="2" stroke-linecap="round" stroke-linejoin="round"/><path d="M19.567 16.04h7.866c.367 0 .667.3.667.667v2.633c0 .367-.3.667-.667.667h-7.866a.669.669 0 01-.667-.667v-2.633c0-.367.3-.667.667-.667zm-2.634 21.3h47.2m-23.6-4.233a2.633 2.633 0 100-5.267 2.633 2.633 0 000 5.267z" stroke="#A89365" stroke-width="2" stroke-linecap="round" stroke-linejoin="round"/><path d="M38.399 53.122a2.01 2.01 0 01-2.121 1.874 2.01 2.01 0 01-1.874-2.122A2.012 2.012 0 0136.419 51a2.054 2.054 0 011.98 2.122z" stroke="#A89365" stroke-width="2" stroke-miterlimit="10"/><path d="M29.4 40a1 1 0 00-1 1v4a1 1 0 001 1h3.009a.68.68 0 00.564-.329c.169-.263.163-.613-.055-.837l-.826-.844c-.234-.24-.614-.27-.95-.27-.548.034-1.062-.422-1.097-1.018a1.055 1.055 0 01.995-1.123 1.08 1.08 0 011.131 1.017v.036c0 .387-.004.838.267 1.114l.684.701c.25.255.657.257.956.063a.686.686 0 00.322-.564V41a1 1 0 00-1-1h-4zm0 22a1 1 0 01-1-1v-4a1 1 0 011-1h3.038c.23 0 .435.13.56.324.17.262.164.614-.056.837l-.826.836c-.238.24-.62.27-.958.27-.586-.034-1.069.419-1.103 1.012-.035.593.414 1.116 1 1.151.586.035 1.069-.418 1.103-1.011v-.035c0-.384-.004-.834.266-1.107l.693-.7c.25-.254.656-.256.955-.063a.692.692 0 01.328.57V61a1 1 0 01-1 1h-4zm22-22a1 1 0 011 1v4a1 1 0 01-1 1h-3.044a.68.68 0 01-.564-.329c-.169-.263-.163-.613.055-.837l.826-.844c.234-.24.614-.27.95-.27.582.034 1.062-.422 1.097-1.018a1.055 1.055 0 00-.995-1.123c-.583-.035-1.063.421-1.097 1.017v.036c0 .387.004.838-.266 1.114l-.699.715a.715.715 0 01-.926.068c-.196-.137-.337-.361-.337-.6V41a1 1 0 011-1h4zm-.006 21.994a1 1 0 001.006-1V57a1 1 0 00-1-1h-3.047a.676.676 0 00-.56.325c-.169.262-.163.612.055.835l.824.838c.235.24.614.27.95.27.583-.035 1.063.418 1.098 1.011a1.051 1.051 0 01-.995 1.116c-.583.035-1.063-.418-1.097-1.011v-.035c0-.384.004-.833-.265-1.107l-.7-.713a.715.715 0 00-.924-.068c-.198.137-.34.362-.34.602v2.908a1 1 0 00.995 1l4 .023z" fill="#A89365"/><path d="M44.396 53.122a2.01 2.01 0 01-2.12 1.874 2.01 2.01 0 01-1.872-2.122A2.011 2.011 0 0142.418 51c1.165.035 2.049.99 1.978 2.122z" stroke="#A89365" stroke-width="2" stroke-miterlimit="10"/><path d="M37.4 51v-6m0 0h6m0 0v6" stroke="#A89365" stroke-width="2" stroke-miterlimit="10" stroke-linecap="round" stroke-linejoin="round"/><path stroke="#A89365" d="M37.4 48.5h6"/></svg>
